**kern	**kern
*part1	*part1
*staff2	*staff1
*I"Piano	*
*clefF4	*clefG2
*k[b-e-a-d-]	*k[b-e-a-d-]
=1	=1
2.r	2.r
=	=
*^	*
(8AA-L	4AA-	(4e- 4cc 4ee-
8A-J	.	.
8CCL	4CC	4g-X 4ee- 4gg-X
8CJ	.	.
8DD-L	4DD-	4f 4dd- 4ff
8D-J	.	.
=	=	=
8FFL	4FF	4e- 4an 4cc
8FJ	.	.
8BBB-L	4BBB-	4d- 4b- 4dd-
8BB-J	.	.
8EE-L	4EE-	4B-) 4d- 4g
8E-J)	.	.
=	=	=
*	*	*^
8rGG	4rGG	4r	4ryy
4AA-	.	.	.
.	2AAA-	(4a-	2c-X 2e-
4AA-	.	.	.
.	.	4g-X)	.
8AA-	.	.	.
=	=	=	=
8rGG	4rGG	4r	4ryy
4D-	.	.	.
.	2DD-	(4dd-	2f-X 2a-
4D-	.	.	.
.	.	4cc-X)	.
8D-	.	.	.
=	=	=	=
8r	4r	4r	4ryy
4G-X	.	.	.
.	2GG-X	2g-X 2b-	(4f-X
4G-	.	.	.
.	.	.	4dn)
8G-	.	.	.
=	=	=	=
8r	2.BB--	4r	4ryy
4B--	.	.	.
.	.	(4ee-	2e- 2g-X
4B--	.	.	.
.	.	4dd-X)	.
8B--	.	.	.
=	=	=	=
8r	2.AA-	4r	4ryy
4A-	.	.	.
.	.	(4dd-	2e- 2g-X
4A-	.	.	.
.	.	4cc)	.
8A-	.	.	.
*v	*v	*	*
*	*v	*v
=	=
*-	*-
!!!system-decoration: {(s1,s2)}
